X:1925
T:Polska från Ulvön
R:Polska
O:Ulvön, Ångermanland
Z:Håkan Lidén, 2011-03-10
N:[[http://www.smus.se/earkiv/fmk/browselarge.php?lang=sw&katalogid=%C5n+1&bildnr=00029|SMUS]] (nr 52)
M:3/4
L:1/8
K:D
|: d2 Bd cd | (3ABc d2 Af | (3fef g2 fe | fe (3cBc AB/c/ | d2 Bd cd | (3ABc d2 Af | (3fef gf ed | (3cBc d4 :: f2 (3fef ag/f/ | ef ga b2 | af/a/ ge/g/ fd/f/ | ec/e/ dA FA | f2 (3fef ag/f/ | ef ga b2 | af/a/ ge/g/ fd/f/ | ec d4 :|]
(:musicend:)

Denna låt har väldigt [[!lite information]]
(:music:)
